X: 0
T: O Haste, The Blessed Babe Is Born!
Z: E. Handley
Z: Copyright © 2004 by Douglas D. Anderson
Z: Released To The Public Domain
L: 1/4
M: 4/4
Q: 1/4=130
V: P1 name="Staff"
%%MIDI program 1 19
K: F
[V: P1]  F | A3/ G/ F c | B3/ A/ G d | (c/ B/) (A/ F/) B A | G3 A | B3/ d/ c (A/ G/) | F G A3/ A/ | (B/ A/) (G/ F/) G c | A3|]
w: O haste, the bless- ed Babe is born! The King_ ex-_ pect ed long: Haste, haste, with eag- er_ foot- steps forth, A- mid_ the_ joy- ous throng.

